src/lib/packages/icons/src/assets/line/android.svg

<svg width="24" height="24" viewBox="0 0 24 24" fill="none" xmlns="http://www.w3.org/2000/svg">
<path d="M8.61994 13.8101C8.61994 14.2301 8.27994 14.5701 7.86994 14.5701C7.45994 14.5701 7.10993 14.2301 7.10993 13.8101C7.10993 13.3901 7.44994 13.0601 7.86994 13.0601C8.28994 13.0601 8.61994 13.4001 8.61994 13.8101ZM16.1299 13.0601C15.7199 13.0601 15.3799 13.3901 15.3799 13.8101C15.3799 14.2301 15.7099 14.5701 16.1299 14.5701C16.5499 14.5701 16.89 14.2301 16.89 13.8101C16.89 13.3901 16.5499 13.0601 16.1299 13.0601ZM21.7499 16.9201C21.7699 17.1301 21.6999 17.3401 21.5599 17.5001C21.4199 17.6601 21.2199 17.7501 20.9999 17.7501H2.99994C2.78994 17.7501 2.57995 17.6601 2.43995 17.5001C2.29995 17.3401 2.22994 17.1301 2.24994 16.9201C2.56994 13.7901 4.35993 11.0301 7.04993 9.47011L5.76996 7.24009C5.62996 7.00009 5.71996 6.7001 5.94996 6.5601C6.18996 6.4201 6.48995 6.50009 6.62995 6.74009L7.92994 9.01011C10.4699 7.88011 13.5399 7.89011 16.0399 9.01011L17.34 6.74009C17.48 6.50009 17.79 6.4201 18.02 6.5601C18.26 6.7001 18.34 7.00009 18.2 7.24009L16.9199 9.47011C19.6199 11.0401 21.3999 13.7901 21.7199 16.9201H21.7499ZM20.1299 16.2501C19.6399 13.8801 18.16 11.8301 16.03 10.6701L15.52 10.4101C13.4 9.43011 10.6299 9.42012 8.46991 10.4201L7.94996 10.6801C5.84996 11.8301 4.35995 13.8801 3.87995 16.2501H20.1299Z" fill="currentColor"/>
</svg>

<svg xmlns="http://www.w3.org/2000/svg" width="24" height="24" fill="none"><path fill="currentColor" d="M8.62 13.81c0 .42-.34.76-.75.76s-.76-.34-.76-.76.34-.75.76-.75.75.34.75.75Zm7.51-.75c-.41 0-.75.33-.75.75s.33.76.75.76.76-.34.76-.76-.34-.75-.76-.75Zm5.62 3.86c.02.21-.05.42-.19.58-.14.16-.34.25-.56.25H3a.75.75 0 0 1-.56-.25.772.772 0 0 1-.19-.58 9.743 9.743 0 0 1 4.8-7.45L5.77 7.24a.502.502 0 0 1 .18-.68c.24-.14.54-.06.68.18l1.3 2.27c2.54-1.13 5.61-1.12 8.11 0l1.3-2.27c.14-.24.45-.32.68-.18.24.14.32.44.18.68l-1.28 2.23a9.734 9.734 0 0 1 4.8 7.45h.03Zm-1.62-.67c-.49-2.37-1.97-4.42-4.1-5.58l-.51-.26c-2.12-.98-4.89-.99-7.05.01l-.52.26c-2.1 1.15-3.59 3.2-4.07 5.57h16.25Z"/></svg>
